X:1
T:[ID 10-116]
T:[ID 10-116]
T:Bezeichnung standardisiert: Walzer Waltzer
T:Urheber unbekannt Datum in der hier transkribierten schriftlichen Quelle: 1799
C:Urheber unbekannt
C:Datum in der hier transkribierten schriftlichen Quelle: 1799
L:1/8
M:3/8
K:D
V:1 treble 
V:1
 ff/g/e/f/ | ddd | gg/a/f/g/ | e2 f/g/ | a/f/a/f/d | b/g/b/g/e | g/e/g/e/c/e/ | d3 :: A3 | f2 d | %10
 d/c/B/A/B/c/ | dfa | A3 | f2 d | d/c/B/A/B/c/ | d3 :: f/g/ | a/f/a/f/b/g/ | a/f/a/f/b/g/ | %19
 a/f/a/f/a/f/ | eee | a/f/a/f/b/g/ | a/f/a/f/b/g/ | a/b/a/g/f/e/ | d3 :| %25

